bicons/16x16/emblems/script-false.svg

<?xml version="1.0" encoding="UTF-8" standalone="no"?>
<!-- Created with Inkscape (http://www.inkscape.org/) -->

<svg
   xmlns:dc="http://purl.org/dc/elements/1.1/"
   xmlns:cc="http://creativecommons.org/ns#"
   xmlns:rdf="http://www.w3.org/1999/02/22-rdf-syntax-ns#"
   xmlns:svg="http://www.w3.org/2000/svg"
   xmlns="http://www.w3.org/2000/svg"
   xmlns:xlink="http://www.w3.org/1999/xlink"
   xmlns:sodipodi="http://sodipodi.sourceforge.net/DTD/sodipodi-0.dtd"
   xmlns:inkscape="http://www.inkscape.org/namespaces/inkscape"
   width="210mm"
   height="297mm"
   viewBox="0 0 744.09448819 1052.3622047"
   id="svg2"
   version="1.1"
   inkscape:version="0.91 r13725"
   inkscape:export-xdpi="3.6012447"
   inkscape:export-ydpi="3.6012447"
   sodipodi:docname="script-false.svg"
   inkscape:export-filename="D:\Dokumente\Arbeit\RRZE\github\bicons\16x16\emblems\script-false.png">
  <defs
     id="defs4">
    <linearGradient
       id="linearGradient2224">
      <stop
         id="stop2226"
         offset="0"
         style="stop-color:#7c7c7c;stop-opacity:1;" />
      <stop
         id="stop2228"
         offset="1"
         style="stop-color:#b8b8b8;stop-opacity:1;" />
    </linearGradient>
    <linearGradient
       id="linearGradient15218">
      <stop
         id="stop15220"
         offset="0"
         style="stop-color:#eeeeef;stop-opacity:1;" />
      <stop
         id="stop2736"
         offset="0.59928656"
         style="stop-color:#d3d7cf;stop-opacity:1;" />
      <stop
         id="stop2738"
         offset="0.82758623"
         style="stop-color:#ffffff;stop-opacity:1;" />
      <stop
         id="stop15222"
         offset="1"
         style="stop-color:#d3d7cf;stop-opacity:1;" />
    </linearGradient>
    <pattern
       y="0"
       x="0"
       height="6"
       width="6"
       patternUnits="userSpaceOnUse"
       id="EMFhbasepattern" />
    <pattern
       y="0"
       x="0"
       height="6"
       width="6"
       patternUnits="userSpaceOnUse"
       id="EMFhbasepattern-5" />
    <linearGradient
       gradientTransform="translate(6.521061,-0.30554575)"
       inkscape:collect="always"
       xlink:href="#linearGradient4194"
       id="linearGradient4200"
       x1="262"
       y1="668.36218"
       x2="502"
       y2="322.36221"
       gradientUnits="userSpaceOnUse" />
    <linearGradient
       inkscape:collect="always"
       id="linearGradient4194">
      <stop
         style="stop-color:#4e505d;stop-opacity:1;"
         offset="0"
         id="stop4196" />
      <stop
         style="stop-color:#7a8597;stop-opacity:1"
         offset="1"
         id="stop4198" />
    </linearGradient>
  </defs>
  <sodipodi:namedview
     id="base"
     pagecolor="#ffffff"
     bordercolor="#666666"
     borderopacity="1.0"
     inkscape:pageopacity="0.0"
     inkscape:pageshadow="2"
     inkscape:zoom="1"
     inkscape:cx="217.21025"
     inkscape:cy="511.45427"
     inkscape:document-units="px"
     inkscape:current-layer="layer1"
     showgrid="false"
     showguides="true"
     inkscape:guide-bbox="true"
     inkscape:window-width="1600"
     inkscape:window-height="837"
     inkscape:window-x="-4"
     inkscape:window-y="-4"
     inkscape:window-maximized="1">
    <sodipodi:guide
       position="560,730.00002"
       orientation="0,1"
       id="guide3338" />
    <sodipodi:guide
       position="560,330.00001"
       orientation="0,1"
       id="guide3340" />
    <sodipodi:guide
       position="190,475.00001"
       orientation="1,0"
       id="guide3344" />
    <sodipodi:guide
       position="590,451.00001"
       orientation="1,0"
       id="guide3346" />
    <inkscape:grid
       type="xygrid"
       id="grid3440" />
  </sodipodi:namedview>
  <metadata
     id="metadata7">
    <rdf:RDF>
      <cc:Work
         rdf:about="">
        <dc:format>image/svg+xml</dc:format>
        <dc:type
           rdf:resource="http://purl.org/dc/dcmitype/StillImage" />
        <dc:title>script false</dc:title>
        <dc:date>June 2015</dc:date>
        <dc:creator>
          <cc:Agent>
            <dc:title>Johannes Hechler</dc:title>
          </cc:Agent>
        </dc:creator>
        <dc:rights>
          <cc:Agent>
            <dc:title>Johannes Hechler</dc:title>
          </cc:Agent>
        </dc:rights>
        <dc:publisher>
          <cc:Agent>
            <dc:title>RRZE</dc:title>
          </cc:Agent>
        </dc:publisher>
        <dc:contributor>
          <cc:Agent>
            <dc:title>Ute Weber, Hendrik Eggers</dc:title>
          </cc:Agent>
        </dc:contributor>
      </cc:Work>
    </rdf:RDF>
  </metadata>
  <g
     inkscape:label="Ebene 1"
     inkscape:groupmode="layer"
     id="layer1">
    <g
       id="g4190">
      <rect
         y="322.11554"
         x="189.31348"
         height="385.34863"
         width="385.34863"
         id="rect4160"
         style="opacity:1;fill:none;fill-opacity:1;stroke:none;stroke-width:23;stroke-linecap:butt;stroke-linejoin:round;stroke-miterlimit:4;stroke-dasharray:none;stroke-opacity:1" />
      <path
         id="path4153"
         d="M 247.21484 322.11523 C 276.73901 330.13923 291.04115 341.80087 288.36328 373.55273 L 227.30078 677.52344 L 227.21484 677.52344 C 225.38758 691.40507 228.27372 699.96325 243.78906 703.24414 L 250.91211 703.24414 C 256.66984 701.00292 260.21627 698.71753 262.08203 696.32617 C 264.09414 693.74723 265.89705 690.037 264.9043 679.66992 L 263.22266 648.10352 L 359.24414 648.10352 L 396.96289 610.45898 L 353.17578 566.75781 C 335.95329 549.56958 335.95319 520.71562 353.17578 503.52734 L 370.19336 486.54297 A 25.0025 25.0025 0 0 0 370.19531 486.54297 C 378.80659 477.94888 390.30433 473.65234 401.80273 473.65234 C 413.30114 473.65235 424.7989 477.94893 433.41016 486.54297 L 477.26953 530.3125 L 521.45703 486.21289 C 529.03018 478.65287 538.91654 474.54304 549.01172 473.85547 L 563.26172 373.55273 C 564.91092 338.60214 552.86229 326.37283 522.11328 322.11523 L 247.21484 322.11523 z M 222.76172 337.58398 C 219.58503 337.63918 216.54313 338.42759 214.94531 340.80859 C 210.68446 347.15789 221.10156 373.00391 221.10156 373.00391 L 261.88477 372.35547 C 263.10385 346.18185 256.13475 343.46634 243.72852 339.43555 C 243.72852 339.43555 228.05622 337.49205 222.76172 337.58398 z M 401.80273 525.63867 L 392.2793 535.14258 L 450.01367 592.76367 A 25.0025 25.0025 0 0 1 450.01367 628.1543 L 430.02539 648.10352 L 448.66797 648.10352 L 459.33398 637.4043 A 25.0025 25.0025 0 0 1 494.7793 637.43945 L 505.36719 648.10352 L 524.25586 648.10352 L 524.28711 647.87891 L 504.29297 627.92383 A 25.0025 25.0025 0 0 1 504.29297 592.5332 L 536.75391 560.13867 L 539.82422 538.52148 L 494.92773 583.32812 A 25.0025 25.0025 0 0 1 459.60938 583.32812 L 401.80273 525.63867 z M 550.1582 673.69922 L 530.80469 673.72266 L 552.18555 695.25586 L 561.67773 685.19531 L 550.1582 673.69922 z M 423 673.85547 L 404.19922 673.87695 L 392.8457 685.20898 L 402.20898 694.71094 L 423 673.85547 z M 341.7168 673.95508 L 289.91992 674.01758 C 292.43067 700.23685 279.63512 716.44871 264.10156 722.12695 L 359.24805 722.34766 L 352.76953 715.77148 C 341.61942 704.6407 337.93825 688.44095 341.7168 673.95508 z M 477.00391 690.50195 L 445.05859 722.54688 L 508.97266 722.69531 L 477.00391 690.50195 z "
         style="fill:url(#linearGradient4200);fill-opacity:1;fill-rule:evenodd;stroke:none;stroke-width:1px;stroke-linecap:butt;stroke-linejoin:miter;stroke-opacity:1" />
      <path
         id="rect4202"
         d="m 316.94922,397.33398 c -6.648,0 -12,5.352 -12,12 0,6.648 5.352,12 12,12 l 185,0 c 6.648,0 12,-5.352 12,-12 0,-6.648 -5.352,-12 -12,-12 z m -10.42774,51.72266 c -6.371,0 -11.5,5.129 -11.5,11.5 0,6.371 5.129,11.5 11.5,11.5 l 42.79688,0 3.21484,-3.20898 0.002,0 c 0.56188,-0.55554 1.14978,-1.08413 1.76172,-1.58399 11.39717,-10.6095 25.63156,-16.67203 40.14257,-18.20703 z m -10.25,49 c -6.5095,0 -11.75,5.2405 -11.75,11.75 0,6.5095 5.2405,11.75 11.75,11.75 l 20.22461,0 c 1.61288,-8.22598 4.71938,-16.20169 9.29297,-23.5 z"
         style="color:#252525;clip-rule:nonzero;display:inline;overflow:visible;visibility:visible;opacity:1;isolation:auto;mix-blend-mode:normal;color-interpolation:sRGB;color-interpolation-filters:linearRGB;solid-color:#252525;solid-opacity:1;fill:#ffffff;fill-opacity:1;fill-rule:nonzero;stroke:none;stroke-width:23;stroke-linecap:butt;stroke-linejoin:round;stroke-miterlimit:4;stroke-dasharray:none;stroke-dashoffset:0;stroke-opacity:1;color-rendering:auto;image-rendering:auto;shape-rendering:auto;text-rendering:auto;enable-background:accumulate"
         inkscape:connector-curvature="0"
         sodipodi:nodetypes="sssssssssscccccssssccs" />
      <path
         sodipodi:nodetypes="cccscsccsssscscsccsccc"
         inkscape:connector-curvature="0"
         id="rect4217"
         d="m 583.01301,699.00981 c 7.72825,-7.71293 7.72236,-20.13362 -0.004,-27.84649 l -61.0558,-60.93428 61.85123,-61.72809 c 7.16464,-7.15037 7.15879,-18.66497 -0.004,-25.81534 l -18.81382,-18.77638 c -7.16464,-7.15037 -18.70225,-7.15624 -25.86689,-0.004 l -61.85115,61.72817 -61.51783,-61.39541 c -7.72828,-7.71283 -20.1679,-7.71287 -27.8962,0 l -17.01819,16.98475 c -7.72828,7.71288 -7.72824,20.12778 0,27.84065 l 61.51785,61.39536 -61.92724,61.80395 c -7.16464,7.15037 -7.15876,18.66501 0.004,25.81538 l 18.81383,19.09611 c 7.10389,7.21048 18.70221,7.15619 25.86685,0.004 l 61.92742,-62.12349 61.29613,61.73359 c 7.693,7.74792 20.17377,7.71875 27.90203,0.004 l 16.77822,-17.78389 z"
         style="opacity:1;fill:#d9463a;fill-opacity:1;stroke:none;stroke-width:0;stroke-linecap:square;stroke-linejoin:round;stroke-miterlimit:4;stroke-dasharray:none;stroke-opacity:1" />
    </g>
  </g>
</svg>

<?xml version="1.0" encoding="UTF-8" standalone="no"?>
<!-- Created with Inkscape (http://www.inkscape.org/) -->

<svg
   xmlns:dc="http://purl.org/dc/elements/1.1/"
   xmlns:cc="http://creativecommons.org/ns#"
   xmlns:rdf="http://www.w3.org/1999/02/22-rdf-syntax-ns#"
   xmlns:svg="http://www.w3.org/2000/svg"
   xmlns="http://www.w3.org/2000/svg"
   xmlns:xlink="http://www.w3.org/1999/xlink"
   xmlns:sodipodi="http://sodipodi.sourceforge.net/DTD/sodipodi-0.dtd"
   xmlns:inkscape="http://www.inkscape.org/namespaces/inkscape"
   width="210mm"
   height="297mm"
   viewBox="0 0 744.09448819 1052.3622047"
   id="svg2"
   version="1.1"
   inkscape:version="0.91 r13725"
   inkscape:export-xdpi="3.6012447"
   inkscape:export-ydpi="3.6012447"
   sodipodi:docname="script-false.svg"
   inkscape:export-filename="D:\Dokumente\Arbeit\RRZE\github\bicons\16x16\emblems\script-false.png">
  <defs
     id="defs4">
    <linearGradient
       id="linearGradient2224">
      <stop
         id="stop2226"
         offset="0"
         style="stop-color:#7c7c7c;stop-opacity:1;" />
      <stop
         id="stop2228"
         offset="1"
         style="stop-color:#b8b8b8;stop-opacity:1;" />
    </linearGradient>
    <linearGradient
       id="linearGradient15218">
      <stop
         id="stop15220"
         offset="0"
         style="stop-color:#eeeeef;stop-opacity:1;" />
      <stop
         id="stop2736"
         offset="0.59928656"
         style="stop-color:#d3d7cf;stop-opacity:1;" />
      <stop
         id="stop2738"
         offset="0.82758623"
         style="stop-color:#ffffff;stop-opacity:1;" />
      <stop
         id="stop15222"
         offset="1"
         style="stop-color:#d3d7cf;stop-opacity:1;" />
    </linearGradient>
    <pattern
       y="0"
       x="0"
       height="6"
       width="6"
       patternUnits="userSpaceOnUse"
       id="EMFhbasepattern" />
    <pattern
       y="0"
       x="0"
       height="6"
       width="6"
       patternUnits="userSpaceOnUse"
       id="EMFhbasepattern-5" />
    <linearGradient
       gradientTransform="translate(6.521061,-0.30554575)"
       inkscape:collect="always"
       xlink:href="#linearGradient4194"
       id="linearGradient4200"
       x1="262"
       y1="668.36218"
       x2="502"
       y2="322.36221"
       gradientUnits="userSpaceOnUse" />
    <linearGradient
       inkscape:collect="always"
       id="linearGradient4194">
      <stop
         style="stop-color:#4e505d;stop-opacity:1;"
         offset="0"
         id="stop4196" />
      <stop
         style="stop-color:#7a8597;stop-opacity:1"
         offset="1"
         id="stop4198" />
    </linearGradient>
  </defs>
  <sodipodi:namedview
     id="base"
     pagecolor="#ffffff"
     bordercolor="#666666"
     borderopacity="1.0"
     inkscape:pageopacity="0.0"
     inkscape:pageshadow="2"
     inkscape:zoom="1.4142136"
     inkscape:cx="407.94171"
     inkscape:cy="528.92366"
     inkscape:document-units="px"
     inkscape:current-layer="layer1"
     showgrid="false"
     showguides="true"
     inkscape:guide-bbox="true"
     inkscape:window-width="1600"
     inkscape:window-height="837"
     inkscape:window-x="-4"
     inkscape:window-y="-4"
     inkscape:window-maximized="1">
    <sodipodi:guide
       position="560,730.00002"
       orientation="0,1"
       id="guide3338" />
    <sodipodi:guide
       position="560,330.00001"
       orientation="0,1"
       id="guide3340" />
    <sodipodi:guide
       position="190,475.00001"
       orientation="1,0"
       id="guide3344" />
    <sodipodi:guide
       position="590,451.00001"
       orientation="1,0"
       id="guide3346" />
    <inkscape:grid
       type="xygrid"
       id="grid3440" />
  </sodipodi:namedview>
  <metadata
     id="metadata7">
    <rdf:RDF>
      <cc:Work
         rdf:about="">
        <dc:format>image/svg+xml</dc:format>
        <dc:type
           rdf:resource="http://purl.org/dc/dcmitype/StillImage" />
        <dc:title>script false</dc:title>
        <dc:date>June 2015</dc:date>
        <dc:creator>
          <cc:Agent>
            <dc:title>Johannes Hechler</dc:title>
          </cc:Agent>
        </dc:creator>
        <dc:rights>
          <cc:Agent>
            <dc:title>Johannes Hechler</dc:title>
          </cc:Agent>
        </dc:rights>
        <dc:publisher>
          <cc:Agent>
            <dc:title>RRZE</dc:title>
          </cc:Agent>
        </dc:publisher>
        <dc:contributor>
          <cc:Agent>
            <dc:title>Ute Weber, Hendrik Eggers</dc:title>
          </cc:Agent>
        </dc:contributor>
      </cc:Work>
    </rdf:RDF>
  </metadata>
  <g
     inkscape:label="Ebene 1"
     inkscape:groupmode="layer"
     id="layer1">
    <g
       id="g4190">
      <rect
         y="322.11554"
         x="189.31348"
         height="385.34863"
         width="385.34863"
         id="rect4160"
         style="opacity:1;fill:none;fill-opacity:1;stroke:none;stroke-width:23;stroke-linecap:butt;stroke-linejoin:round;stroke-miterlimit:4;stroke-dasharray:none;stroke-opacity:1" />
      <path
         id="path4153"
         d="M 247.21484 322.11523 C 276.73901 330.13923 291.04115 341.80087 288.36328 373.55273 L 227.30078 677.52344 L 227.21484 677.52344 C 225.38758 691.40507 228.27372 699.96325 243.78906 703.24414 L 250.91211 703.24414 C 256.66984 701.00292 260.21627 698.71753 262.08203 696.32617 C 264.09414 693.74723 265.89705 690.037 264.9043 679.66992 L 263.22266 648.10352 L 359.24414 648.10352 L 396.96289 610.45898 L 353.17578 566.75781 C 335.95329 549.56958 335.95319 520.71562 353.17578 503.52734 L 370.19336 486.54297 A 25.0025 25.0025 0 0 0 370.19531 486.54297 C 378.80659 477.94888 390.30433 473.65234 401.80273 473.65234 C 413.30114 473.65235 424.7989 477.94893 433.41016 486.54297 L 477.26953 530.3125 L 521.45703 486.21289 C 529.03018 478.65287 538.91654 474.54304 549.01172 473.85547 L 563.26172 373.55273 C 564.91092 338.60214 552.86229 326.37283 522.11328 322.11523 L 247.21484 322.11523 z M 222.76172 337.58398 C 219.58503 337.63918 216.54313 338.42759 214.94531 340.80859 C 210.68446 347.15789 221.10156 373.00391 221.10156 373.00391 L 261.88477 372.35547 C 263.10385 346.18185 256.13475 343.46634 243.72852 339.43555 C 243.72852 339.43555 228.05622 337.49205 222.76172 337.58398 z M 401.80273 525.63867 L 392.2793 535.14258 L 450.01367 592.76367 A 25.0025 25.0025 0 0 1 450.01367 628.1543 L 430.02539 648.10352 L 448.66797 648.10352 L 459.33398 637.4043 A 25.0025 25.0025 0 0 1 494.7793 637.43945 L 505.36719 648.10352 L 524.25586 648.10352 L 524.28711 647.87891 L 504.29297 627.92383 A 25.0025 25.0025 0 0 1 504.29297 592.5332 L 536.75391 560.13867 L 539.82422 538.52148 L 494.92773 583.32812 A 25.0025 25.0025 0 0 1 459.60938 583.32812 L 401.80273 525.63867 z M 550.1582 673.69922 L 530.80469 673.72266 L 552.18555 695.25586 L 561.67773 685.19531 L 550.1582 673.69922 z M 423 673.85547 L 404.19922 673.87695 L 392.8457 685.20898 L 402.20898 694.71094 L 423 673.85547 z M 341.7168 673.95508 L 289.91992 674.01758 C 292.43067 700.23685 279.63512 716.44871 264.10156 722.12695 L 359.24805 722.34766 L 352.76953 715.77148 C 341.61942 704.6407 337.93825 688.44095 341.7168 673.95508 z M 477.00391 690.50195 L 445.05859 722.54688 L 508.97266 722.69531 L 477.00391 690.50195 z "
         style="fill:url(#linearGradient4200);fill-opacity:1;fill-rule:evenodd;stroke:none;stroke-width:1px;stroke-linecap:butt;stroke-linejoin:miter;stroke-opacity:1" />
      <path
         id="rect4202"
         d="M 316.94922 397.33398 C 310.30122 397.33398 304.94922 402.68598 304.94922 409.33398 C 304.94922 415.98198 310.30122 421.33398 316.94922 421.33398 L 501.94922 421.33398 C 508.59722 421.33398 513.94922 415.98198 513.94922 409.33398 C 513.94922 402.68598 508.59722 397.33398 501.94922 397.33398 L 316.94922 397.33398 z M 306.52148 449.05664 C 300.15048 449.05664 295.02148 454.18564 295.02148 460.55664 C 295.02148 466.92764 300.15048 472.05664 306.52148 472.05664 L 349.31836 472.05664 L 352.5332 468.84766 A 25.0025 25.0025 0 0 0 352.53516 468.84766 A 25.0025 25.0025 0 0 1 354.29688 467.26367 C 365.69405 456.65417 379.92844 450.59164 394.43945 449.05664 L 306.52148 449.05664 z M 409.22852 449.05664 C 424.46713 450.66483 439.42233 457.22296 451.07031 468.84766 L 454.28516 472.05664 L 454.75195 472.05664 C 461.12295 472.05664 466.25195 466.92764 466.25195 460.55664 C 466.25195 454.18564 461.12295 449.05664 454.75195 449.05664 L 409.22852 449.05664 z M 296.27148 498.05664 C 289.76198 498.05664 284.52148 503.29714 284.52148 509.80664 C 284.52148 516.31614 289.76198 521.55664 296.27148 521.55664 L 316.49609 521.55664 C 318.10897 513.33066 321.21547 505.35495 325.78906 498.05664 L 296.27148 498.05664 z M 401.80273 498.65234 C 396.53207 498.65234 391.54006 500.56104 387.85547 504.23828 A 25.0025 25.0025 0 0 1 370.19531 511.54297 L 380.53516 511.54297 L 376.80273 515.26758 L 376.80273 521.55664 L 377.15039 521.55664 A 25.0025 25.0025 0 0 1 419.46094 507.94141 L 415.75 504.23828 C 412.06542 500.56107 407.07337 498.65235 401.80273 498.65234 z M 374.61914 517.44727 L 370.83594 521.22266 C 370.72695 521.33143 370.62527 521.44528 370.51953 521.55664 L 371.30859 521.55664 A 25.0025 25.0025 0 0 1 374.61914 517.44727 z "
         style="color:#252525;clip-rule:nonzero;display:inline;overflow:visible;visibility:visible;opacity:1;isolation:auto;mix-blend-mode:normal;color-interpolation:sRGB;color-interpolation-filters:linearRGB;solid-color:#252525;solid-opacity:1;fill:#ffffff;fill-opacity:1;fill-rule:nonzero;stroke:none;stroke-width:23;stroke-linecap:butt;stroke-linejoin:round;stroke-miterlimit:4;stroke-dasharray:none;stroke-dashoffset:0;stroke-opacity:1;color-rendering:auto;image-rendering:auto;shape-rendering:auto;text-rendering:auto;enable-background:accumulate" />
      <path
         sodipodi:nodetypes="cccscsccsssscscsccsccc"
         inkscape:connector-curvature="0"
         id="rect4217"
         d="m 583.01301,699.00981 c 7.72825,-7.71293 7.72236,-20.13362 -0.004,-27.84649 l -61.0558,-60.93428 61.85123,-61.72809 c 7.16464,-7.15037 7.15879,-18.66497 -0.004,-25.81534 l -18.81382,-18.77638 c -7.16464,-7.15037 -18.70225,-7.15624 -25.86689,-0.004 l -61.85115,61.72817 -61.51783,-61.39541 c -7.72828,-7.71283 -20.1679,-7.71287 -27.8962,0 l -17.01819,16.98475 c -7.72828,7.71288 -7.72824,20.12778 0,27.84065 l 61.51785,61.39536 -61.92724,61.80395 c -7.16464,7.15037 -7.15876,18.66501 0.004,25.81538 l 18.81383,19.09611 c 7.10389,7.21048 18.70221,7.15619 25.86685,0.004 l 61.92742,-62.12349 61.29613,61.73359 c 7.693,7.74792 20.17377,7.71875 27.90203,0.004 l 16.77822,-17.78389 z"
         style="opacity:1;fill:#d9463a;fill-opacity:1;stroke:none;stroke-width:0;stroke-linecap:square;stroke-linejoin:round;stroke-miterlimit:4;stroke-dasharray:none;stroke-opacity:1" />
    </g>
  </g>
</svg>
